X:1
T:James Gibb editions
T:Quel dolce foco - Festa
T:#
%%score [ 1 2 3 ]
L:1/8
Q:1/4=108
M:4/4
K:F
V:1 treble nm="Soprano I" snm="S I"
V:2 treble nm="Soprano II" snm="S II"
V:3 treble nm="Alto" snm="A"
V:1
"^Quel dolce foco""^Costanzo Festa\n(1490-1545)" G4 B3 c | (d3 c/B/ A2) d2 | c2 A2 c4- | c2 c2 B4 | %4
w: Quel dol- ce|foc' * * * in|cui ab- brug\-|* gio~~ed ar-|
 A4 z2 d2 |[M:4/4] d2 d2 e2 e2 | (f3 e d2) d2 | (gfed c2) (f2- | fe) (e3 d d2- | d2 ^c2) d4- | %10
w: do, E|par ch'ad or' ad|o\- * * ra|mi * * * * con\-|* * su\- * *|* * mi,|
 d4 z2 d2 | d2 d2 c2 A2 | B2 c2 (d4 | c2) B2 (A4 | G2 B3 A G2- | G2 ^F2) G4- | G2 d2 f2 f2 | %17
w: * Non|d'al- tro vien che|da bei vo\-|* stri lu\-||* * mi.|* Pe- rò ma-|
 g4 f4 | d6 d2 | c2 A2 B4 | A8 | z4 d4 | d2 d2 g4- | g2 f2 _e4 | d4 z2 d2 | e2 e2 f3 e | %26
w: don- na|fa- te|sian più par-|chi|Nel-|la tur- ba\-|* ta vi-|sta Ver-|so di quel che|
 d2 g3 (fed | cd) e3 d (d2- | d2 ^c2) d4- | d2 d2 d2 d2 | d2 d2 d4 | B4 c2 d2 | _e4 d4 | %33
w: v'a- ma an\- * *|* * zi v'a- do\-|* * ra.|* E se per|ben ser- vir|pre- mio s'ac-|qui- sta|
 z2 c2 c2 c2 | d4 c2 d2- | d2 d2 (cB) (AG) | A4 G4 | g4 f3 e | d2 e2 f4 | d4 d3 c | B4 A4- | A8 | %42
w: Non sia- te|cau- sa che|* lan- guen\- * do *|mo- ra|Per- ché l'e-|ter- no bia-|smo ac- qui-|sta- re\-||
 F4 z2 D2 | F2 F2 G2 G2 | A2 c4 B2 | A2 (B3 A G2- | G2 ^F2 GABc | d2 _e4 d2- | d2 c2) d4- | d8 | %50
w: te po-|ten- do- mi dar|vi- ta m'oc-|ci- de\- * *|||* * te||
 d4 z2 D2 | F2 F2 G2 G2 | A2 c4 B2 | A2 (B3 A G2- | G2 F2) G4- | G8 | G8 | !fermata!G8 |] %58
w: * Po-|ten- do- mi dar|vi- ta m'oc-|ci- de\- * *|* * te.||||
V:2
 z8 | D4 F3 G | (A3 G/F/ E2) A2 | G2 E2 G2 G2 | (F4 G4) |[M:4/4] D2 G2 G2 G2 | A2 A2 (B3 A) | %7
w: |Quel dol- ce|foc' * * * in|cui ab- brug- gio~~ed|ar\- *|do, E par ch'ad|or' ad o\- *|
 G2 (c3 BAG | F2) A2 (GFED | E4) D4 | z2 B2 B2 B2 | A2 F2 G2 A2 | F2 G2 (B2 A2- | AG G4 ^F2) | %14
w: ra mi * * *|* con- su\- * * *|* mi,|Non d'al- tro|vien che da bei|vo- stri lu\- *||
 G4 D4 | A2 A2 B4- | (A3 G A2 d2- | d2 c2) d4 | A6 B2 | G2 F2 G4 | ^F4 z2 A2 | A2 A2 (d3 c | %22
w: mi. Pe-|rò ma- don\-||* * na|fa- te|sian più par-|chi Nel-|la tur- ba\- *|
 B2) A2 (G3 A | Bc d4 c2) | d8 | z2 G2 A2 A2 | B3 A G2 G2 | A4 G2 F2 | E4 D4 | z2 B2 B2 A2 | %30
w: * ta vi\- *||sta|Ver- so di|quel che v'a- ma|an- zi v'a-|do- ra.|E se per|
 B2 B2 A4 | G3 (FGA) B2- | B2 A2 B4 | z2 A2 A2 A2 | B4 A2 B2- | B2 B2 AG (G2- | G2 ^F2) G4 | %37
w: ben ser- vir|pre- mio * * s'ac\-|* qui- sta|Non sia- te|cau- sa che|* lan- guen- do mo\-|* * ra|
 B4 A2 A2 | B4 c4 | B4 A2 A2 | G4 F4 | D4 F3 G | A2 B2 c2 B2 | A2 (B3 A) (G2- | G2 ^F2) G2 (d2- | %45
w: Per- ch'e- ter-|no bia-|sm'ac- qui- sta-|re- te|po- ten- do-|mi dar vi- ta|m'oc- ci\- * de\-|* * te e|
 dcBA) G2 G2 | A4 G4 | B4 A2 F2 | G4 A4 | D4 F3 G | A2 B2 c2 B2 | A2 (B3 A) (G2- | %52
w: * * * * m'oc- ci-|de- te|e m'oc- ci-|de- te|Po- ten- do-|mi dar vi- ta|m'oc- ci\- * de\-|
 G2 ^F2) G2 (d2- | dcBA) G2 G2 | A4 G4 | D4 _E2 D2 | _E4 D4- | !fermata!D8 |] %58
w: * * te e|* * * * m'oc- ci-|de- te|e m'oc- ci-|de- te.||
V:3
 z4 G,4 | B,3 C (D3 C/B,/ | A,2) D2 C2 A,2 | C2 C2 (G,A,B,C | D4) G,4- |[M:4/4] G,4 z4 | D4 D2 D2 | %7
w: Quel|dol- ce foc' * *|* in cui ab-|brug- gio~~ed ar\- * * *|* do,||E par ch'ad|
 E2 E2 F3 E | D2 C2 B,4 | A,4 z2 D2 | G6 G2 | F2 D2 E2 F2 | D2 C2 (B, C D E | F2 G2 D4) | G,8 | %15
w: or' ad o- ra|mi con- su-|mi, Non|d'al- tro|vien che da bei|vo- stri lu\- * * *||mi.|
 z4 G,4 | D6 D2 | _E4 D4- | D2 D4 B,2 | C2 D2 G,4 | D8 | z2 D2 D2 D2 | G2 F2 _E4 | D2 F2 G2 A2 | %24
w: Pe-|rò ma-|don- na|* fa- te|sian più par-|chi|Nel- la tur-|ba- ta vi-|sta Ver- so di|
 B3 A (G2 F2 | E4) D4 | (G3 F EDCB,) | A,3 B, (C2 D2) | A,4 z2 D2 | G6 F2 | G2 G2 D4 | %31
w: quel che v'a\- *|* ma|an\- * * * * *|zi v'a- do\- *|ra. E|se per|ben ser- vir|
 _E3 D (C2 B,2) | C4 B,4 | z2 F2 F2 F2 | (B,CD_E) F2 B,2- | B,2 B,2 C2 _E2 | D4 G,4 | G,4 D2 D2 | %38
w: pre- mio s'ac\- *|qui- sta|Non sia- te|cau\- * * * sa che|* lan- guen- do|mo- ra|Per- ch'e- ter-|
 G4 F4 | G4 G2 ^F2 | G4 D2 D2 | F3 E D4- | D2 D2 C2 (D2- | DCB,A,) G,2 B,2 | A,4 G,4 | D4 _E2 E2 | %46
w: no bia-|sm'ac- qui- sta-|re- te po-|ten- do- mi|* dar vi- ta|* * * * m'oc- ci-|de- te|e m'oc- ci-|
 D4 G,4 | G4 F2 D2 | E4 D2 D2 | F3 E D4- | D2 D2 C2 (D2- | DCB,) A, G,2 B,2 | A,4 G,4 | D4 _E2 E2 | %54
w: de- te|e m'oc- ci-|de- te Po-|ten- do mi|* dar vi- ta|* * * m'oc\- * ci|de- te|e m'oc- ci-|
 D4 G,4 | G,4 C2 B,2 | C4 G,4- | !fermata!G,8 |] %58
w: de- te|e m'oc- ci-|de- te.||

